packages/elvis-assets-icons/icons/svg/src/cabin.svg

<svg width="24" height="24" viewBox="0 0 24 24" fill="none" xmlns="http://www.w3.org/2000/svg">
<g clip-path="url(#clip0)">
<path d="M0.750977 23.999C0.336977 23.999 0.000976562 23.663 0.000976562 23.249C0.000976562 22.835 0.336977 22.499 0.750977 22.499H1.50098V16.874L1.20098 17.099C1.06998 17.197 0.914977 17.249 0.750977 17.249C0.515977 17.249 0.291977 17.137 0.150977 16.949C-0.0970234 16.618 -0.0300234 16.147 0.300977 15.899L6.30098 11.399C6.43198 11.301 6.58698 11.249 6.75098 11.249C6.91498 11.249 7.06998 11.301 7.20098 11.399L13.201 15.899C13.532 16.147 13.599 16.618 13.351 16.949C13.21 17.137 12.986 17.249 12.751 17.249C12.588 17.249 12.433 17.197 12.302 17.099L12.001 16.874V22.499H18.001V20.922C16.269 20.572 15.001 19.048 15.001 17.249C15.001 12.631 17.954 6.66502 18.08 6.41402C18.208 6.15802 18.465 5.99902 18.751 5.99902C19.037 5.99902 19.294 6.15802 19.422 6.41402C19.548 6.66602 22.501 12.631 22.501 17.249C22.501 19.048 21.233 20.572 19.501 20.922V22.499H23.251C23.665 22.499 24.001 22.835 24.001 23.249C24.001 23.663 23.665 23.999 23.251 23.999H0.750977ZM10.501 22.499V15.749L6.75098 12.937L3.00098 15.749V22.499H4.50098V20.249C4.50098 19.008 5.50998 17.999 6.75098 17.999C7.99198 17.999 9.00098 19.008 9.00098 20.249V22.499H10.501ZM7.50098 22.499V20.249C7.50098 19.835 7.16498 19.499 6.75098 19.499C6.33698 19.499 6.00098 19.835 6.00098 20.249V22.499H7.50098ZM18.751 8.56302C17.882 10.6 16.501 14.3 16.501 17.249C16.501 18.49 17.51 19.499 18.751 19.499C19.992 19.499 21.001 18.49 21.001 17.249C21.001 14.298 19.62 10.599 18.751 8.56302Z" fill="black"/>
<path d="M3.74296 7.49906C2.06996 7.49906 0.586963 6.37306 0.136963 4.76106C-0.418037 2.77206 0.748963 0.702057 2.73796 0.147057C3.06996 0.0550566 3.40996 0.00805664 3.74996 0.00805664C4.38796 0.00805664 5.02196 0.175057 5.58396 0.492057C6.14896 0.811057 6.61396 1.26006 6.94396 1.80406C7.35296 1.60406 7.80196 1.49906 8.26096 1.49906C9.92696 1.50606 11.267 2.85706 11.261 4.51106C11.254 6.15906 9.90896 7.49906 8.26096 7.49906H3.74296ZM3.74796 1.50806C3.54396 1.50806 3.33996 1.53606 3.14096 1.59206C1.94796 1.92406 1.24896 3.16506 1.58096 4.35706C1.85096 5.32406 2.73996 5.99906 3.74296 5.99906C3.74296 5.99906 8.25596 5.99906 8.25796 5.99906C9.08496 5.99606 9.75496 5.32706 9.75796 4.50506C9.75996 4.10406 9.60496 3.72706 9.32296 3.44306C9.04196 3.15806 8.66596 3.00106 8.26596 2.99906C7.84696 2.99906 7.45496 3.16906 7.17296 3.46606C7.03096 3.61406 6.83296 3.69906 6.62796 3.69906C6.56696 3.69906 6.50696 3.69206 6.44796 3.67706C6.18596 3.61206 5.97896 3.41006 5.90596 3.15006C5.74496 2.57206 5.36796 2.09206 4.84596 1.79806C4.50896 1.60806 4.12896 1.50806 3.74796 1.50806Z" fill="black"/>
</g>
<defs>
<clipPath id="clip0">
<rect width="24" height="24" fill="white"/>
</clipPath>
</defs>
</svg>

<svg width="24" height="24" fill="none" xmlns="http://www.w3.org/2000/svg"><g clip-path="url(#clip0)" fill="#000"><path d="M.751 23.999a.75.75 0 010-1.5h.75v-5.625l-.3.225a.753.753 0 01-1.05-.15.75.75 0 01.15-1.05l6-4.5a.745.745 0 01.9 0l6 4.5a.75.75 0 01-.899 1.2l-.301-.225v5.625h6v-1.577a3.743 3.743 0 01-3-3.673c0-4.618 2.953-10.584 3.079-10.835a.746.746 0 01.671-.415c.286 0 .543.159.671.415.126.252 3.079 6.217 3.079 10.835a3.743 3.743 0 01-3 3.673v1.577h3.75a.75.75 0 010 1.5H.751zm9.75-1.5v-6.75l-3.75-2.812-3.75 2.812v6.75h1.5v-2.25a2.252 2.252 0 012.25-2.25 2.252 2.252 0 012.25 2.25v2.25h1.5zm-3 0v-2.25a.75.75 0 00-1.5 0v2.25h1.5zm11.25-13.936c-.869 2.037-2.25 5.737-2.25 8.686a2.252 2.252 0 002.25 2.25 2.252 2.252 0 002.25-2.25c0-2.951-1.381-6.65-2.25-8.686zM3.743 7.5A3.756 3.756 0 01.137 4.76 3.75 3.75 0 013.75.008c.638 0 1.272.167 1.834.484.565.32 1.03.768 1.36 1.312.409-.2.858-.305 1.317-.305a3.007 3.007 0 013 3.012 3.006 3.006 0 01-3 2.988H3.743zm.005-5.992a2.247 2.247 0 00-2.167 2.849A2.252 2.252 0 003.743 6h4.515a1.504 1.504 0 001.5-1.494 1.487 1.487 0 00-.435-1.062A1.485 1.485 0 008.266 3c-.419 0-.811.17-1.093.467a.758.758 0 01-.725.211.752.752 0 01-.542-.527 2.228 2.228 0 00-1.06-1.352 2.242 2.242 0 00-1.098-.29z"/></g><defs><clipPath id="clip0"><path fill="#fff" d="M0 0h24v24H0z"/></clipPath></defs></svg>
